scalable/places/user-home.svg

<?xml version="1.0" encoding="UTF-8" standalone="no"?>
<svg
   height="128px"
   viewBox="0 0 128 128"
   width="128px"
   version="1.1"
   id="svg9"
   sodipodi:docname="user-home.svg"
   xml:space="preserve"
   inkscape:version="1.3.2 (091e20ef0f, 2023-11-25)"
   xmlns:inkscape="http://www.inkscape.org/namespaces/inkscape"
   xmlns:sodipodi="http://sodipodi.sourceforge.net/DTD/sodipodi-0.dtd"
   xmlns="http://www.w3.org/2000/svg"
   xmlns:svg="http://www.w3.org/2000/svg"><defs
     id="defs9" /><sodipodi:namedview
     id="namedview9"
     pagecolor="#ffffff"
     bordercolor="#000000"
     borderopacity="0.25"
     inkscape:showpageshadow="2"
     inkscape:pageopacity="0.0"
     inkscape:pagecheckerboard="0"
     inkscape:deskcolor="#d1d1d1"
     inkscape:zoom="4.9497475"
     inkscape:cx="71.215754"
     inkscape:cy="78.690883"
     inkscape:window-width="1920"
     inkscape:window-height="1043"
     inkscape:window-x="0"
     inkscape:window-y="0"
     inkscape:window-maximized="1"
     inkscape:current-layer="svg9" /><linearGradient
     id="a"
     gradientTransform="matrix(0.45451 0 0 0.455522 -1210.292114 616.172607)"
     gradientUnits="userSpaceOnUse"
     x1="2689.251953"
     x2="2918.069824"
     y1="-1106.802979"
     y2="-1106.802979"><stop
       offset="0"
       stop-color="#62a0ea"
       id="stop1" /><stop
       offset="0.0576991"
       stop-color="#afd4ff"
       id="stop2" /><stop
       offset="0.122204"
       stop-color="#62a0ea"
       id="stop3" /><stop
       offset="0.873306"
       stop-color="#62a0ea"
       id="stop4" /><stop
       offset="0.955997"
       stop-color="#c0d5ea"
       id="stop5" /><stop
       offset="1"
       stop-color="#62a0ea"
       id="stop6" /></linearGradient><path
     id="path6"
     style="fill:#bba985;fill-opacity:1"
     d="M 21.976562 12 C 16.449225 12 12 16.460944 12 22 L 12 54 L 12 108.03125 C 12 113.57421 16.449225 118.03125 21.976562 118.03125 L 106.01953 118.03125 C 111.55078 118.03125 116 113.57421 116 108.03125 L 116 46 L 116 35.945312 C 116 29.316413 110.64062 23.945312 104.02734 23.945312 L 58 23.945312 C 55.546877 23.945312 53.304687 22.558592 52.203125 20.363281 L 50.699219 17.371094 C 49.04297 14.078128 45.679684 12 42 12 L 21.976562 12 z " /><path
     d="m 65.976562 32 c -2.746093 0 -5.226562 1.101562 -7.027343 2.890625 c -2.273438 2.253906 -5.382813 5.109375 -8.632813 5.109375 h -28.339844 c -5.527343 0 -9.976562 4.460938 -9.976562 10 v 55.976562 c 0 5.539063 4.449219 10 9.976562 10 h 84.042969 c 5.53125 0 9.980469 -4.460937 9.980469 -10 v -63.976562 c 0 -5.539062 -4.449219 -10 -9.980469 -10 z m 0 0"
     fill="#a4caee"
     id="path8"
     style="fill:#e3d1b6;fill-opacity:1" /><path
     d="m 64.875 64 c -0.414062 0 -0.820312 0.132812 -1.164062 0.367188 l -14.878907 10 c -0.898437 0.648437 -1.109375 1.890624 -0.46875 2.789062 c 0.382813 0.53125 0.984375 0.84375 1.632813 0.835938 v 8.007812 c 0 3.289062 2.710937 6 6 6 h 18.003906 c 3.289062 0 6 -2.640625 6 -6 v -8.007812 c 0.648438 0.007812 1.25 -0.304688 1.632812 -0.835938 c 0.640626 -0.898438 0.429688 -2.140625 -0.46875 -2.789062 l -15.125 -10 c -0.34375 -0.234376 -0.75 -0.367188 -1.164062 -0.367188 z m 0 4.453125 l 11.125 7.140625 v 10.40625 c 0 1.125 -0.875 2 -2 2 h -8.003906 v -8 c 0 -1.109375 -0.890625 -2 -2 -2 h -2 c -1.109375 0 -2 0.890625 -2 2 v 8 h -4 c -1.125 0 -2 -0.875 -2 -2 v -10.40625 z m 0 0"
     fill="#438de6"
     id="path9"
     style="fill:#bba985;fill-opacity:1" /></svg>

<svg xmlns="http://www.w3.org/2000/svg" xml:space="preserve" width="128" height="128" viewBox="0 0 128 128">
    <path d="M21.977 12C16.449 12 12 16.46 12 22v86.031c0 5.543 4.45 10 9.977 10h84.043a9.965 9.965 0 0 0 9.98-10V35.945c0-6.629-5.36-12-11.973-12H58a6.49 6.49 0 0 1-5.797-3.582L50.7 17.371A9.74 9.74 0 0 0 42 12z" style="fill:#bba985;fill-opacity:1"/>
    <path fill="#a4caee" d="M65.977 32a9.93 9.93 0 0 0-7.028 2.89C56.676 37.146 53.566 40 50.316 40h-28.34C16.45 40 12 44.46 12 50v55.977c0 5.539 4.45 10 9.977 10h84.043c5.53 0 9.98-4.461 9.98-10V42c0-5.54-4.45-10-9.98-10zm0 0" style="fill:#e3d1b6;fill-opacity:1"/>
    <path fill="#438de6" d="M64.875 64c-.414 0-.82.133-1.164.367l-14.879 10a2 2 0 0 0-.469 2.79 1.98 1.98 0 0 0 1.633.835V86c0 3.29 2.711 6 6 6H74c3.29 0 6-2.64 6-6v-8.008a1.98 1.98 0 0 0 1.633-.836c.64-.898.43-2.14-.469-2.789l-15.125-10A2.1 2.1 0 0 0 64.875 64m0 4.453L76 75.593V86c0 1.125-.875 2-2 2h-8.004v-8c0-1.11-.89-2-2-2h-2c-1.11 0-2 .89-2 2v8h-4c-1.125 0-2-.875-2-2V75.594zm0 0" style="fill:#bba985;fill-opacity:1"/>
</svg>
